X:13
T:Green Mountain Petronella
M:4/4
R:reel
Q:1/2=120
L:1/8
K:G
GE|"G"D2G2 GFGE|"G"D2B2 B3d|"Am"c2A2 ABcd|"D"e2d2 d^cd2|
"G"D2G2 GFGE|"G"D2B2 B3d|"Am"c2A2 "D7"AGAc|"G"B2G2G2:|
|:Bd|"G"g2g2 "D"f2f2|"C"efge "G"d2d2|"C"edef gfge|"Am"B2A2 "D"A2Bd|
"G"g2g2 "D"f2f2|"C"efge "G"d2d2|"C"edef gfge|"D7"B2A2"G"G2:|
